flaticon/holiday/barbecue.svg

<svg xmlns="http://www.w3.org/2000/svg" width="32" height="32" viewBox="0 0 24 24">
    <path d="M 23.503906 11.742188 L 23.09375 11.539062 C 23.265625 11.394531 23.417969 11.226562 23.53125 11.03125 L 23.554688 10.992188 C 23.953125 10.28125 24.089844 9.410156 23.941406 8.542969 C 23.578125 6.453125 22.164062 4.679688 21.042969 3.558594 C 19.417969 1.929688 17.738281 0.957031 16.0625 0.664062 C 15.195312 0.511719 14.324219 0.648438 13.578125 1.070312 C 13.527344 1.097656 13.480469 1.140625 13.429688 1.175781 C 13.359375 1.085938 13.25 1.027344 13.125 1.027344 C 12.902344 1.027344 12.722656 1.207031 12.722656 1.429688 C 12.5 1.429688 12.320312 1.609375 12.320312 1.832031 C 12.320312 2.039062 12.480469 2.207031 12.683594 2.226562 C 12.671875 2.265625 12.652344 2.300781 12.644531 2.339844 C 12.519531 2.878906 12.625 3.449219 12.9375 3.902344 C 13.292969 4.429688 13.835938 4.789062 14.550781 4.96875 C 14.894531 5.054688 15.292969 5.246094 15.699219 5.484375 L 14.78125 6.40625 C 14.324219 6.863281 14.074219 7.46875 14.074219 8.117188 C 14.074219 8.625 14.230469 9.109375 14.519531 9.515625 L 12 12.035156 L 9.480469 9.515625 C 9.769531 9.109375 9.925781 8.625 9.925781 8.117188 C 9.925781 7.46875 9.675781 6.863281 9.222656 6.40625 L 8.300781 5.484375 C 8.707031 5.246094 9.109375 5.058594 9.449219 4.96875 C 10.164062 4.789062 10.707031 4.429688 11.066406 3.902344 C 11.316406 3.53125 11.425781 3.085938 11.394531 2.636719 L 11.515625 2.636719 C 11.738281 2.636719 11.917969 2.457031 11.917969 2.234375 C 11.917969 2.011719 11.738281 1.832031 11.515625 1.832031 L 11.515625 1.429688 C 11.515625 1.207031 11.335938 1.027344 11.113281 1.027344 C 10.9375 1.027344 10.789062 1.140625 10.734375 1.296875 C 10.632812 1.207031 10.515625 1.121094 10.390625 1.050781 C 9.675781 0.648438 8.804688 0.511719 7.9375 0.664062 C 6.261719 0.957031 4.585938 1.929688 2.957031 3.558594 C 1.835938 4.679688 0.425781 6.453125 0.0585938 8.542969 C -0.0898438 9.410156 0.046875 10.28125 0.464844 11.023438 C 0.578125 11.222656 0.734375 11.390625 0.90625 11.539062 L 0.496094 11.742188 C 0.296875 11.839844 0.21875 12.082031 0.316406 12.28125 C 0.386719 12.425781 0.53125 12.503906 0.679688 12.503906 C 0.738281 12.503906 0.800781 12.492188 0.859375 12.464844 L 1.261719 12.261719 L 1.136719 12.878906 C 1.09375 13.097656 1.234375 13.308594 1.453125 13.351562 C 1.480469 13.359375 1.507812 13.359375 1.53125 13.359375 C 1.71875 13.359375 1.886719 13.226562 1.925781 13.035156 L 2.0625 12.351562 L 2.386719 12.671875 C 2.464844 12.75 2.566406 12.789062 2.671875 12.789062 C 2.773438 12.789062 2.878906 12.75 2.957031 12.671875 C 3.113281 12.515625 3.113281 12.261719 2.957031 12.101562 L 2.773438 11.921875 C 2.960938 11.863281 3.136719 11.777344 3.300781 11.667969 C 3.828125 11.3125 4.183594 10.769531 4.367188 10.054688 C 4.453125 9.710938 4.640625 9.3125 4.882812 8.902344 L 5.804688 9.824219 C 6.273438 10.296875 6.894531 10.53125 7.511719 10.53125 C 8.003906 10.53125 8.488281 10.375 8.90625 10.082031 L 11.429688 12.605469 L 7.660156 16.375 L 6.804688 15.519531 L 1.679688 20.648438 C 1.375 20.949219 1.207031 21.355469 1.207031 21.785156 C 1.207031 22.21875 1.375 22.621094 1.679688 22.925781 C 1.992188 23.238281 2.40625 23.394531 2.816406 23.394531 C 3.230469 23.394531 3.644531 23.238281 3.957031 22.925781 L 9.082031 17.796875 L 8.230469 16.945312 L 12 13.171875 L 15.769531 16.945312 L 14.917969 17.796875 L 20.042969 22.925781 C 20.355469 23.238281 20.769531 23.394531 21.183594 23.394531 C 21.59375 23.394531 22.007812 23.238281 22.320312 22.925781 C 22.625 22.621094 22.792969 22.21875 22.792969 21.785156 C 22.792969 21.355469 22.625 20.949219 22.320312 20.648438 L 17.195312 15.519531 L 16.339844 16.375 L 12.570312 12.605469 L 15.089844 10.082031 C 15.496094 10.371094 15.980469 10.53125 16.488281 10.53125 C 17.136719 10.53125 17.742188 10.277344 18.195312 9.824219 L 19.117188 8.902344 C 19.359375 9.3125 19.546875 9.710938 19.632812 10.054688 C 19.816406 10.765625 20.171875 11.3125 20.699219 11.667969 C 20.863281 11.777344 21.039062 11.863281 21.226562 11.921875 L 21.042969 12.101562 C 20.886719 12.261719 20.886719 12.515625 21.042969 12.671875 C 21.121094 12.75 21.226562 12.789062 21.328125 12.789062 C 21.433594 12.789062 21.535156 12.75 21.613281 12.671875 L 21.9375 12.351562 L 22.074219 13.035156 C 22.113281 13.226562 22.28125 13.359375 22.46875 13.359375 C 22.492188 13.359375 22.519531 13.359375 22.546875 13.351562 C 22.765625 13.308594 22.90625 13.097656 22.863281 12.878906 L 22.738281 12.261719 L 23.140625 12.464844 C 23.199219 12.492188 23.261719 12.503906 23.320312 12.503906 C 23.46875 12.503906 23.613281 12.425781 23.683594 12.28125 C 23.78125 12.085938 23.703125 11.84375 23.503906 11.742188 Z M 8.652344 6.976562 C 8.953125 7.277344 9.121094 7.683594 9.121094 8.117188 C 9.121094 8.40625 9.039062 8.683594 8.894531 8.929688 L 6.664062 6.699219 C 6.949219 6.441406 7.273438 6.183594 7.613281 5.9375 Z M 3.585938 9.855469 C 3.453125 10.375 3.207031 10.757812 2.847656 11.003906 C 2.601562 11.167969 2.304688 11.230469 2.007812 11.1875 C 2.007812 11.183594 2.003906 11.183594 2.003906 11.183594 C 1.988281 11.175781 1.972656 11.164062 1.953125 11.15625 C 1.941406 11.152344 1.929688 11.152344 1.917969 11.148438 C 1.910156 11.148438 1.902344 11.140625 1.894531 11.140625 C 1.882812 11.136719 1.867188 11.140625 1.855469 11.140625 C 1.835938 11.136719 1.820312 11.132812 1.804688 11.132812 C 1.796875 11.132812 1.792969 11.132812 1.789062 11.132812 C 1.523438 11.039062 1.300781 10.863281 1.148438 10.597656 C 0.839844 10.046875 0.734375 9.367188 0.851562 8.683594 C 1.179688 6.800781 2.488281 5.167969 3.523438 4.128906 C 5.035156 2.621094 6.566406 1.722656 8.078125 1.457031 C 8.261719 1.425781 8.445312 1.410156 8.628906 1.410156 C 9.121094 1.410156 9.589844 1.523438 9.984375 1.746094 L 10.019531 1.765625 C 10.300781 1.929688 10.496094 2.195312 10.570312 2.519531 C 10.644531 2.84375 10.582031 3.183594 10.398438 3.453125 C 10.15625 3.8125 9.769531 4.058594 9.253906 4.1875 C 8.121094 4.476562 6.671875 5.539062 5.804688 6.40625 C 4.933594 7.273438 3.871094 8.722656 3.585938 9.855469 Z M 6.371094 9.253906 L 5.335938 8.21875 C 5.578125 7.878906 5.839844 7.550781 6.09375 7.269531 L 8.324219 9.5 C 7.707031 9.859375 6.902344 9.785156 6.371094 9.253906 Z M 3.386719 22.355469 C 3.074219 22.667969 2.5625 22.667969 2.246094 22.355469 C 2.097656 22.203125 2.011719 22.003906 2.011719 21.785156 C 2.011719 21.570312 2.097656 21.367188 2.246094 21.214844 L 6.804688 16.660156 L 7.945312 17.800781 Z M 21.75 21.214844 C 21.902344 21.367188 21.984375 21.570312 21.984375 21.785156 C 21.984375 22.003906 21.902344 22.203125 21.75 22.355469 C 21.4375 22.667969 20.925781 22.667969 20.613281 22.355469 L 16.054688 17.796875 L 17.195312 16.660156 Z M 14.878906 8.117188 C 14.878906 7.683594 15.046875 7.277344 15.347656 6.976562 L 16.386719 5.9375 C 16.726562 6.183594 17.050781 6.441406 17.335938 6.699219 L 15.105469 8.929688 C 14.960938 8.683594 14.878906 8.40625 14.878906 8.117188 Z M 17.628906 9.253906 C 17.097656 9.785156 16.292969 9.859375 15.675781 9.5 L 17.902344 7.269531 C 18.160156 7.550781 18.421875 7.878906 18.664062 8.21875 Z M 20.414062 9.855469 C 20.128906 8.722656 19.066406 7.273438 18.195312 6.40625 C 17.328125 5.539062 15.878906 4.476562 14.746094 4.1875 C 14.230469 4.058594 13.84375 3.808594 13.601562 3.453125 C 13.417969 3.179688 13.355469 2.839844 13.429688 2.519531 C 13.503906 2.195312 13.699219 1.929688 14.003906 1.753906 C 14.558594 1.445312 15.238281 1.339844 15.921875 1.457031 C 17.433594 1.722656 18.964844 2.621094 20.476562 4.128906 C 21.511719 5.167969 22.820312 6.800781 23.148438 8.679688 C 23.265625 9.367188 23.160156 10.046875 22.835938 10.625 C 22.699219 10.867188 22.476562 11.039062 22.210938 11.132812 C 22.207031 11.132812 22.203125 11.132812 22.195312 11.132812 C 22.179688 11.132812 22.160156 11.136719 22.144531 11.140625 C 22.128906 11.140625 22.117188 11.136719 22.105469 11.140625 C 22.097656 11.140625 22.089844 11.144531 22.082031 11.148438 C 22.070312 11.152344 22.058594 11.152344 22.046875 11.15625 C 22.027344 11.164062 22.011719 11.175781 21.996094 11.183594 C 21.996094 11.183594 21.992188 11.183594 21.992188 11.1875 C 21.699219 11.230469 21.398438 11.167969 21.152344 11.003906 C 20.792969 10.757812 20.546875 10.375 20.414062 9.855469 Z M 20.414062 9.855469"/>
    <path d="M3.457031 21.566406C3.457031 21.789062 3.277344 21.96875 3.054688 21.96875 2.832031 21.96875 2.652344 21.789062 2.652344 21.566406 2.652344 21.34375 2.832031 21.164062 3.054688 21.164062 3.277344 21.164062 3.457031 21.34375 3.457031 21.566406zM21.382812 21.566406C21.382812 21.789062 21.203125 21.96875 20.980469 21.96875 20.757812 21.96875 20.578125 21.789062 20.578125 21.566406 20.578125 21.34375 20.757812 21.164062 20.980469 21.164062 21.203125 21.164062 21.382812 21.34375 21.382812 21.566406zM21.382812 21.566406"/>
</svg>

<svg xmlns="http://www.w3.org/2000/svg" width="32" height="32" viewBox="0 0 24 24">
    <path d="M23.504 11.742l-.41-.203c.172-.144.324-.312.437-.508l.024-.039c.398-.71.535-1.582.386-2.449-.363-2.09-1.777-3.863-2.898-4.984-1.625-1.63-3.305-2.602-4.98-2.895a3.713 3.713 0 0 0-2.485.406c-.05.028-.098.07-.148.106a.385.385 0 0 0-.305-.149.402.402 0 0 0-.402.403.399.399 0 1 0-.04.797c-.011.039-.03.074-.038.113-.125.539-.02 1.11.293 1.562.355.528.898.887 1.613 1.067.344.086.742.277 1.148.515l-.918.922a2.399 2.399 0 0 0-.707 1.711c0 .508.156.992.446 1.399L12 12.036l-2.52-2.52c.29-.407.446-.891.446-1.399 0-.648-.25-1.254-.703-1.71L8.3 5.483c.406-.238.808-.425 1.148-.515.715-.18 1.258-.54 1.617-1.067.25-.37.36-.816.329-1.265h.12a.402.402 0 1 0 0-.805V1.43a.402.402 0 0 0-.78-.133 2.023 2.023 0 0 0-.344-.246C9.676.648 8.805.51 7.937.664 6.263.957 4.587 1.93 2.957 3.56 1.836 4.679.426 6.453.059 8.543a3.744 3.744 0 0 0 .406 2.48c.113.2.27.368.441.516l-.41.203a.402.402 0 0 0 .184.762.427.427 0 0 0 .18-.04l.402-.202-.125.617a.401.401 0 0 0 .394.48.404.404 0 0 0 .395-.324l.137-.683.324.32a.405.405 0 0 0 .57 0 .406.406 0 0 0 0-.57l-.184-.18c.188-.059.364-.145.528-.254.527-.355.883-.898 1.066-1.613.086-.344.274-.742.516-1.153l.922.922a2.398 2.398 0 0 0 3.101.258l2.524 2.523-3.77 3.77-.855-.855-5.125 5.128c-.305.301-.473.707-.473 1.137a1.606 1.606 0 0 0 1.61 1.61c.413 0 .828-.157 1.14-.47l5.125-5.128-.852-.852L12 13.172l3.77 3.773-.852.852 5.125 5.129c.312.312.727.469 1.14.469a1.606 1.606 0 0 0 1.61-1.61c0-.43-.168-.836-.473-1.137l-5.125-5.128-.855.855-3.77-3.77 2.52-2.523a2.405 2.405 0 0 0 3.105-.258l.922-.922c.242.41.43.809.516 1.153.183.71.539 1.258 1.066 1.613.164.11.34.195.528.254l-.184.18a.406.406 0 0 0 0 .57.405.405 0 0 0 .57 0l.325-.32.136.683c.04.192.207.324.395.324.023 0 .05 0 .078-.007a.401.401 0 0 0 .316-.473l-.125-.617.403.203c.058.027.12.039.18.039a.4.4 0 0 0 .363-.223.404.404 0 0 0-.18-.539zM8.652 6.977a1.604 1.604 0 0 1 .243 1.953L6.665 6.7c.284-.259.608-.516.948-.763zM3.586 9.855c-.133.52-.379.903-.738 1.149a1.196 1.196 0 0 1-.84.184c0-.004-.004-.004-.004-.004-.016-.008-.031-.02-.05-.028-.013-.004-.024-.004-.036-.008-.008 0-.016-.007-.023-.007-.012-.004-.028 0-.04 0-.02-.004-.035-.008-.05-.008h-.016a1.173 1.173 0 0 1-.64-.535c-.31-.551-.415-1.23-.297-1.914C1.18 6.8 2.488 5.168 3.523 4.129 5.035 2.62 6.566 1.723 8.078 1.457c.184-.031.367-.047.55-.047.493 0 .962.113 1.356.336l.036.02c.28.164.476.43.55.754a1.19 1.19 0 0 1-.172.933c-.242.36-.628.606-1.144.735-1.133.289-2.582 1.351-3.45 2.218-.87.867-1.933 2.317-2.218 3.45zm2.785-.601L5.336 8.219c.242-.34.504-.668.758-.95L8.324 9.5a1.612 1.612 0 0 1-1.953-.246zM3.387 22.355a.811.811 0 0 1-1.14 0 .81.81 0 0 1 0-1.14l4.558-4.555 1.14 1.14zm18.363-1.14a.8.8 0 0 1 .234.57.794.794 0 0 1-.234.57.806.806 0 0 1-1.137 0l-4.558-4.558 1.14-1.137zM14.879 8.117c0-.433.168-.84.469-1.14l1.039-1.04c.34.247.664.504.949.762l-2.23 2.23a1.601 1.601 0 0 1-.227-.812zm2.75 1.137a1.612 1.612 0 0 1-1.953.246l2.226-2.23c.258.28.52.609.762.949zm2.785.601c-.285-1.132-1.348-2.582-2.219-3.449-.867-.867-2.316-1.93-3.449-2.218-.516-.13-.902-.38-1.144-.735a1.195 1.195 0 0 1-.172-.933c.074-.325.27-.59.574-.766.555-.309 1.234-.414 1.918-.297 1.512.266 3.043 1.164 4.555 2.672 1.035 1.039 2.343 2.672 2.671 4.55.118.688.012 1.368-.312 1.946-.137.242-.36.414-.625.508h-.016a.229.229 0 0 0-.05.008c-.016 0-.028-.004-.04 0a.056.056 0 0 0-.023.007c-.012.004-.023.004-.035.008-.02.008-.035.02-.05.028 0 0-.005 0-.005.004a1.2 1.2 0 0 1-.84-.184c-.359-.246-.605-.629-.738-1.149zm0 0"/>
    <path d="M3.457 21.566a.402.402 0 1 1-.804.002.402.402 0 0 1 .804-.002zm0 0M21.383 21.566a.402.402 0 1 1-.804.002.402.402 0 0 1 .804-.002zm0 0"/>
</svg>
